packages/amis-editor/src/icons/form/inputArray.svg

<?xml version="1.0" encoding="UTF-8"?>
<svg width="16px" height="16px" viewBox="0 0 16 16" version="1.1" xmlns="http://www.w3.org/2000/svg" xmlns:xlink="http://www.w3.org/1999/xlink">
    <g id="数组输入框" stroke="none" stroke-width="1" fill="none" fill-rule="evenodd">
        <rect id="矩形" stroke="currentColor" stroke-linejoin="round" x="1.5" y="2.5" width="13" height="11"></rect>
        <path d="M7.5825,10.3175 L7.8475,9.9325 C7.5075,9.7025 7.2175,9.3775 6.9675,8.9625 C7.2375,8.3875 7.3875,7.6925 7.4175,6.8775 L7.7075,6.8775 L7.7075,6.4225 L6.4375,6.4225 C6.4775,6.2175 6.5075,6.0025 6.5375,5.7725 L6.0725,5.6925 C5.9725,6.6225 5.7825,7.3625 5.5025,7.9125 L5.8025,8.2825 C5.8925,8.1325 5.9725,7.9625 6.0525,7.7825 C6.1775,8.2175 6.3275,8.6075 6.4975,8.9525 C6.2775,9.3475 5.9825,9.6675 5.6125,9.9175 L5.8575,10.3125 C6.2075,10.0625 6.5025,9.7525 6.7375,9.3875 C6.9775,9.7725 7.2575,10.0825 7.5825,10.3175 Z M3.4475,8.0675 C3.8325,7.7975 4.1075,7.4825 4.2725,7.1225 L4.2725,7.9675 L4.7075,7.9675 L4.7075,7.4075 C4.8625,7.5075 5.0475,7.6475 5.2675,7.8225 L5.5175,7.4475 C5.2425,7.3025 4.9725,7.1725 4.7075,7.0625 L4.7075,7.0375 L5.5775,7.0375 L5.5775,6.6225 L4.7075,6.6225 L4.7075,5.7025 L4.2725,5.7025 L4.2725,6.6225 L3.3275,6.6225 L3.3275,7.0375 L3.9575,7.0375 C3.8075,7.2675 3.5625,7.4825 3.2125,7.6825 L3.4475,8.0675 Z M5.1725,6.5525 C5.3275,6.3475 5.4525,6.1375 5.5525,5.9275 L5.2175,5.7675 C5.1275,5.9675 5.0025,6.1725 4.8425,6.3825 L5.1725,6.5525 Z M3.7325,6.5375 L4.0725,6.3825 C3.9875,6.1625 3.8925,5.9625 3.7825,5.7725 L3.4075,5.8975 C3.5225,6.0825 3.6325,6.2975 3.7325,6.5375 Z M6.7125,8.4675 C6.5375,8.0775 6.3925,7.6225 6.2825,7.1025 C6.3025,7.0325 6.3225,6.9575 6.3425,6.8775 L6.9875,6.8775 C6.9675,7.4775 6.8775,8.0075 6.7125,8.4675 Z M3.4225,10.2975 C3.9175,10.1675 4.3325,9.9975 4.6625,9.7825 C4.9375,9.9075 5.1725,10.0275 5.3675,10.1475 L5.6225,9.7775 C5.4325,9.6775 5.2325,9.5775 5.0275,9.4875 C5.2575,9.2575 5.4175,8.9925 5.5075,8.6925 L5.5075,8.3075 L4.4875,8.3075 C4.5175,8.2275 4.5425,8.1525 4.5725,8.0725 L4.1275,8.0175 C4.0975,8.1075 4.0625,8.2075 4.0225,8.3075 L3.3175,8.3075 L3.3175,8.7125 L3.8425,8.7125 C3.7475,8.9025 3.6375,9.0975 3.5175,9.3075 C3.7475,9.3975 3.9675,9.4825 4.1725,9.5675 C3.9025,9.7075 3.5775,9.8175 3.2025,9.9075 L3.4225,10.2975 Z M4.5925,9.3075 C4.4275,9.2375 4.2575,9.1775 4.0825,9.1175 C4.1625,8.9875 4.2375,8.8525 4.3075,8.7125 L5.0825,8.7125 C4.9725,8.9325 4.8125,9.1325 4.5925,9.3075 Z M8.4325,9.0475 C8.9325,8.9775 9.4675,8.8375 10.0325,8.6325 L10.0325,8.1975 C9.6925,8.3275 9.3625,8.4275 9.0325,8.5075 C9.3325,8.1425 9.7025,7.5675 10.1375,6.7875 L9.7075,6.6275 C9.5975,6.8275 9.4975,7.0125 9.3975,7.1925 C9.2075,7.2225 9.0125,7.2475 8.8225,7.2675 C9.0825,6.9075 9.3375,6.4375 9.5875,5.8575 L9.1375,5.6825 C8.9375,6.2125 8.7075,6.6875 8.4375,7.1175 C8.3775,7.2075 8.3075,7.2675 8.2325,7.2975 L8.3525,7.7375 C8.6225,7.7025 8.8825,7.6675 9.1425,7.6325 C8.8925,8.0275 8.6875,8.3075 8.5225,8.4725 C8.4625,8.5275 8.3925,8.5725 8.3075,8.6125 L8.4325,9.0475 Z M12.7975,10.1375 L12.7975,9.6775 L12.3975,9.6775 L12.3975,5.9175 L10.2875,5.9175 L10.2875,9.6775 L9.8775,9.6775 L9.8775,10.1375 L12.7975,10.1375 Z M11.9325,7.1525 L10.7525,7.1525 L10.7525,6.3725 L11.9325,6.3725 L11.9325,7.1525 Z M11.9325,8.4175 L10.7525,8.4175 L10.7525,7.5975 L11.9325,7.5975 L11.9325,8.4175 Z M11.9325,9.6775 L10.7525,9.6775 L10.7525,8.8675 L11.9325,8.8675 L11.9325,9.6775 Z M8.3575,10.1025 C8.9675,9.9625 9.5125,9.7775 9.9925,9.5425 L9.9925,9.0925 C9.5125,9.3175 8.9475,9.4975 8.2975,9.6275 L8.3575,10.1025 Z" id="数组" stroke="currentColor" stroke-width="0.1" fill="currentColor" fill-rule="nonzero"></path>
    </g>
</svg>

<svg width="16" height="16" xmlns="http://www.w3.org/2000/svg"><g fill="none" fill-rule="evenodd" stroke="currentColor"><path stroke-linejoin="round" d="M1.5 2.5h13v11h-13z"/><path d="m7.582 10.318.266-.386c-.34-.23-.63-.555-.88-.97.27-.575.42-1.27.45-2.084h.29v-.455h-1.27c.04-.205.07-.42.1-.65l-.466-.08c-.1.93-.29 1.67-.57 2.22l.3.37c.09-.15.17-.32.25-.5.126.434.276.824.446 1.17a2.78 2.78 0 0 1-.886.965l.245.395c.35-.25.646-.56.88-.926.24.386.52.695.845.93Zm-4.135-2.25c.385-.27.66-.585.825-.946v.846h.435v-.56c.155.1.34.24.56.414l.25-.375a9.815 9.815 0 0 0-.81-.385v-.025h.87v-.415h-.87v-.92h-.434v.92h-.945v.415h.63c-.15.23-.396.446-.746.646l.235.385Zm1.726-1.515c.154-.205.28-.415.38-.625l-.335-.16c-.09.2-.215.405-.375.615l.33.17Zm-1.44-.016.34-.154c-.086-.22-.18-.42-.29-.61l-.375.125c.115.184.224.4.325.64Zm2.98 1.93a6.755 6.755 0 0 1-.43-1.365c.02-.07.04-.145.06-.224h.644c-.02.6-.11 1.13-.274 1.59Zm-3.29 1.83c.494-.13.91-.3 1.24-.514.274.125.51.245.704.365l.255-.37c-.19-.1-.39-.2-.595-.29.23-.23.39-.495.48-.795v-.386h-1.02c.03-.08.056-.155.085-.235l-.444-.054c-.03.09-.066.19-.106.29h-.705v.405h.525c-.095.19-.204.385-.325.595.23.09.45.175.656.26-.27.14-.595.25-.97.34l.22.39Zm1.17-.99a7.678 7.678 0 0 0-.51-.19c.08-.13.154-.265.224-.405h.775c-.11.22-.27.42-.49.595Zm3.84-.26a7.97 7.97 0 0 0 1.6-.415v-.434c-.34.13-.67.23-1 .31.3-.365.67-.94 1.104-1.72l-.43-.16c-.11.2-.21.385-.31.564-.19.03-.385.055-.575.075.26-.36.516-.83.766-1.41l-.45-.175c-.2.53-.43 1.005-.7 1.435-.06.09-.13.15-.206.18l.12.44.79-.104c-.25.394-.454.674-.62.84a.84.84 0 0 1-.215.14l.125.434Zm4.364 1.09v-.46h-.4v-3.76h-2.11v3.76h-.41v.46h2.92Zm-.865-2.985h-1.18v-.78h1.18v.78Zm0 1.266h-1.18v-.82h1.18v.82Zm0 1.26h-1.18v-.81h1.18v.81Zm-3.575.424a7.555 7.555 0 0 0 1.636-.56v-.45a7.432 7.432 0 0 1-1.696.535l.06.475Z" stroke-width=".1" fill="currentColor" fill-rule="nonzero"/></g></svg>
